X: 22163
T: L'Antre
R: waltz
M: 3/4
K: Bminor
|:g4>|g4 feed|f4>|f4 eddc|e4>|e4 dccd|B4>|1 c2 deef:|2 B4>||
|:GB cd ef|FA df ed|cF _Bc dc|Bf ed cB|
GB cd ef|FA df ed|BF _Bc dc|1 B4 _B2:|2 B4>||
|:B4 c2 d2|b4b2|a4a2|dB dB dB|Ac de dc|B4B2:|

